X:461
M:C|
L:1/8
K:D
g|f2 dfec Ac|BcdB AFDg|f2 dfec Ac|Bgec d2 dg|f2 dgec Ac|BcdB AFDF|

